!!!!SEGMENT: pl-kk--kk-i-242--001_anonim--rorate-caeli.krn
!!!cenid: 16xx:1959
!!!COM: Anonim
!!!COM-rismID: pe30004985
!!!CDT:
!!!CNT:
!!!OTL: Rorate caeli
!!!PDT:
!!!AGN: Sacred
!!!YEC: Copyright 2022 Narodowy Instytut Fryderyka Chopina (https://polishscores.org)
!!!YEM: License CC-BY-4.0 (https://creativecommons.org/licenses/by/4.0)
!!!SMS-siglum: PL-Kk
!!!SMS-shelfmark: Kk.I.242
!!!SMS-variant:
!!!SMS-altvar:
!!!SMS-shelfwork: 001 W
!!!NIFC-rismSourceID: 1001150847
!!!NIFC-rismChildID: 1001150851
!!!NIFC-islandoraID: pl-kk:4478
!!!URL-pdf-islandora: https://repozytorium.nifc.pl/islandora/object/pl-kk:4478/datastream/PDF/view
!!!URL-scan: https://polish.musicsources.pl/pl/lokalizacje/galeria/rekopisy/5862/1 @EN{Scan on Polish Music Sources Website} @PL{Skany w portalu Dziedzictwo Muzyki Polskiej w otwartym dostępie}
!!!IIIF:
!!!ONB-nifc: UWAGA: CATBBrip (należy uwzględnić również B rip). Kolejne utwory oznaczone w źródle cyframi.
!!!OMD:
!!!AIN: 1 alto 2 bass 1 canto 1 tenor
!!!key: C
**kern	**text	**kern	**text	**kern	**text	**kern	**text	**kern	**text
*part5	*part5	*part4	*part4	*part3	*part3	*part2	*part2	*part1	*part1
*staff5	*staff5	*staff4	*staff4	*staff3	*staff3	*staff2	*staff2	*staff1	*staff1
*I"Baſso Ripieno.	*	*I"Basso.	*	*I"Tenore.	*	*I"Alto.	*	*I"Canto.	*
*I'B rip	*	*I'B	*	*I'T	*	*I'A	*	*I'S	*
*Ibass	*	*Ibass	*	*Itenor	*	*Ialto	*	*Icanto	*
*ICvox	*	*ICvox	*	*ICvox	*	*ICvox	*	*ICvox	*
*clefF4	*	*clefF4	*	*clefC4	*	*clefC3	*	*clefC1	*
*k[]	*	*k[]	*	*k[]	*	*k[]	*	*k[]	*
*C:	*	*C:	*	*C:	*	*C:	*	*C:	*
*M2/2	*	*M2/2	*	*M2/2	*	*M2/2	*	*M2/2	*
*met(c|)	*	*met(c|)	*	*met(c|)	*	*met(c|)	*	*met(c|)	*
=1	=1	=1	=1	=1	=1	=1	=1	=1	=1
!	!	!LO:TX:a:t=4.	!	!LO:TX:a:t=ſ.	!	!LO:TX:a:t=1.	!	!LO:TX:a:t=5	!
00r	.	00r	.	1c	Ro-	1r	.	1r	.
=2	=2	=2	=2	=2	=2	=2	=2	=2	=2
.	.	.	.	2G/	-ra-	1g	Ro-	1r	.
.	.	.	.	2G/	-te	.	.	.	.
=3	=3	=3	=3	=3	=3	=3	=3	=3	=3
.	.	.	.	1A	Cae-	2c/	-ra-	1r	.
.	.	.	.	.	.	2c/	-te	.	.
=4	=4	=4	=4	=4	=4	=4	=4	=4	=4
.	.	.	.	2G/	-li	1e	Cae-	1r	.
*	*	*	*	*2\right	*	*	*	*	*
.	.	.	.	[2c\	ro-	.	.	.	.
=5	=5	=5	=5	=5	=5	=5	=5	=5	=5
*	*	*	*	*	*	*2\right	*	*	*
1G	Ro-	1G	Ro-	2c\]	.	2d\	-li	1r	.
.	.	.	.	2B\	.	2g\	ro-	.	.
=6	=6	=6	=6	=6	=6	=6	=6	=6	=6
2C/	-ra-	2C/	-ra-	2c\	-ra-	2e\	-ra-	1cc	Ro-
2C/	-te	2C/	-te	[2G/	-te	2e\	-te	.	.
=7	=7	=7	=7	=7	=7	=7	=7	=7	=7
1E	Cae-	1E	Cae-	2G/]	.	2e\	Cae-	2g/	-ra-
.	.	.	.	2c\	ro-	2g\	-li	2g/	-te
=8	=8	=8	=8	=8	=8	=8	=8	=8	=8
*2\right	*	*	*	*	*	*	*	*	*
2D,<\	-li	2D/	-li	2d\	-ra-	(2g\	de-	1a	Cae-
2D\	Ro-	2D/	ro-	2d\	-te	4.f#X\)	.	.	.
.	.	.	.	.	.	8f#\	-su-	.	.
=9	=9	=9	=9	=9	=9	=9	=9	=9	=9
1G	-ra-	1G	-ra-	2B\	Cae-	2g\	-per	2g/	-li
.	.	.	.	2B\	-li	2d\	Ro-	2g/	ro-
=10	=10	=10	=10	=10	=10	=10	=10	=10	=10
*	*	*2\right	*	*	*	*	*	*	*
2E,<\	-te	2E,<\	-te	2B\	Cae-	2e\	-ra-	2g/	-ra-
*	*	*	*	*	*	*	*	*2\right	*
[<2A\	Cae-	[<2A\	Cae-	[2c\	.	2e\	-te	2a\	-te
=11	=11	=11	=11	=11	=11	=11	=11	=11	=11
2A\]	.	2A\]	.	2c\]	.	2e\	cae-	2a\	Cae-
2G\	-li	2G\	-li	2B\	-li	2e\	-li	2b\	-li
!	!	!	!	!LO:LB:g=original	!	!	!	!	!
=12	=12	=12	=12	=12	=12	=12	=12	=12	=12
2.F\	de-	2.F\	de-	(4c\	de-	(2e\	de-	2.a\	de-
.	.	.	.	4B\)	.	.	.	.	.
.	.	.	.	4.A/	.	4.d\)	.	.	.
4F\	-su-	4F\	-su-	.	.	.	.	4a\	-su-
.	.	.	.	8A/	-su-	8d\	-su-	.	.
=13	=13	=13	=13	=13	=13	=13	=13	=13	=13
1E	-per	1E	-per	2B,<\	-per	2e\	-per	2g#X/	-per
!	!	!	!	!	!	!	!	!LO:TX:t=P:problem:# below	!
.	.	.	.	2B\	ro-	2e\	Ro-	2g#/	ro-
!	!	!	!	!	!	!LO:LB:g=original	!	!	!
=14	=14	=14	=14	=14	=14	=14	=14	=14	=14
2A\	de-	2A\	de-	2c\	-ra-	2e\	-ra-	2a\	-ra-
2F\	.	2F\	.	2c\	-te	2f\	-te	2a\	-te
*	*	*custos:G	*	*	*	*	*	*	*
!	!	!LO:LB:g=original	!	!	!	!	!	!	!
=15	=15	=15	=15	=15	=15	=15	=15	=15	=15
2G\	.	2.G\	.	2.c\	de-	2.d\	de-	2.g/	de-
2GG/	-su-	.	.	.	.	.	.	.	.
.	.	4G\	-su-	4B\	-su-	4d\	-ſu-	4g/	-su-
=16	=16	=16	=16	=16	=16	=16	=16	=16	=16
1C	-per	1C,<	-per	1c	-per.	1e	-per	1g	-per
=17	=17	=17	=17	=17	=17	=17	=17	=17	=17
!	!	!	!	!	!	!LO:TX:a:t=2	!	!LO:TX:a:t=4.	!
2C/	et	2C/	et	2E/	et	0r	.	00r	.
4C/	nu-	4C/	nu-	4E/	nu-	.	.	.	.
4C/	-bes	4C/	-bes	4E/	-bes	.	.	.	.
=18	=18	=18	=18	=18	=18	=18	=18	=18	=18
2D\	plu-	2D/	plu-	2F/	plu-	.	.	.	.
2D\	-ant	2D,</	-ant	2F/	-ant	.	.	.	.
*custos:E	*	*	*	*	*	*	*	*	*
!LO:LB:g=original	!	!	!	!	!	!	!	!	!
=19	=19	=19	=19	=19	=19	=19	=19	=19	=19
2E\	nu-	2E\	nu-	2G/	nu-	2c/	et	.	.
2E\	-bes	2E\	-bes	2G/	-bes	4c/	nu-	.	.
.	.	.	.	.	.	4c/	-bes	.	.
=20	=20	=20	=20	=20	=20	=20	=20	=20	=20
2F\	plu-	2F\	plu-	2A\	plu-	2d\	plu-	.	.
2G\	-ant	2G\	-ant	2B\	-ant	2d\	-ant	.	.
=21	=21	=21	=21	=21	=21	=21	=21	=21	=21
2C/	ju-	2C/	ju-	2c\	ju-	2e\	nu-	2g/	et
!	!	!	!	!	!	!	!	!LO:LB:g=original	!
=-	=-	=-	=-	=-	=-	=-	=-	=-	=-
2E\	.	2E\	.	2B\	.	2e\	bes	4g/	nu-
.	.	.	.	.	.	.	.	4g/	-bes
=22-	=22	=22	=22	=22	=22	=22	=22	=22	=22
1D	.	1D	.	1d	.	2f#X\	plu-	2a\	plu-
.	.	.	.	.	.	2f#\	-ant	2a\	-ant
=23	=23	=23	=23	=23	=23	=23	=23	=23	=23
1GG	-stum	1GG	-stum	1d	-stum	2g\	et	2bn\	nu-
.	.	.	.	.	.	4g\	nu-	2b\	-bes
.	.	.	.	.	.	4g\	-bes	.	.
!	!	!	!	!LO:LB:g=original	!	!	!	!	!
=24	=24	=24	=24	=24	=24	=24	=24	=24	=24
2C/	nu-	2C/	plu-	2e\	plu-	2g\	plu-	2cc\	plu-
2AA/	-bes	2AA/	-ant	2e\	-ant	2a\	-ant	2cc\	-ant
=25	=25	=25	=25	=25	=25	=25	=25	=25	=25
2BB/	plu-	2BB/	ju-	2d\	Ju-	[<1g	Ju-	2b\	Ju-
2E\	-ant	2E\	.	2B\	.	.	.	2g/	.
=26-	=26	=26	=26	=26	=26	=26	=26	=26	=26
1D	Ju-	1D	.	1d	.	2g\]	.	1a	.
.	.	.	.	.	.	2f#X\	.	.	.
!	!	!	!	!	!	!LO:LB:g=original	!	!	!
=27	=27	=27	=27	=27	=27	=27	=27	=27	=27
4GG,</	-stu(m)	4GG,</	-stum	4d,<\	-stu(m)	2.g,<\	-stum	2b\	-stum
4G\	a-	4G\	a-	4B\	a-	.	.	.	.
4G\	-pe-	4G\	-pe-	4B\	-pe-	.	.	2r	.
4G\	-ri-	4G\	-ri-	4B\	-ri-	4g\	a-	.	.
=28	=28	=28	=28	=28	=28	=28	=28	=28	=28
4G\	-a-	(4G\	-a-	(4B\	-a-	4g\	-pe-	0r	.
4F\	.	4F\)	.	4A/)	.	4g\	-ri-	.	.
2E\	-tur	2E\	-tur	2G/	-tur	(4g\	-a-	.	.
.	.	.	.	.	.	4f\)	.	.	.
*	*	*custos:A	*	*	*	*	*	*	*
!	!	!LO:LB:g=original	!	!	!	!	!	!	!
=29	=29	=29	=29	=29	=29	=29	=29	=29	=29
2A\	ter-	2A\	ter-	2c\	ter-	2e\	-tur	.	.
2A\	-ra	2A\	-ra	2c\	-ra	4e\	ter-	.	.
.	.	.	.	.	.	4e\	-ra	.	.
=30-	=30	=30	=30	=30	=30	=30	=30	=30	=30
1F	et	1F	et	(<2A/	et	1a	et	1r	.
.	.	.	.	2c\)	.	.	.	.	.
=31	=31	=31	=31	=31	=31	=31	=31	=31	=31
4.D/	ger-	4.D/	ger-	4.d\	ger-	4.f\	ger-	4r	.
.	.	.	.	.	.	.	.	4dd\	a-
8D/	-mi-	8D/	-mi-	8d\	-mi-	8f\	-mi-	.	.
2D/	-net	2D/	-net	2d\	-net	2f\	-net	4dd\	-pe-
.	.	.	.	.	.	.	.	4dd\	-ri-
=32	=32	=32	=32	=32	=32	=32	=32	=32	=32
2G\	Sal-	2G\	Sal-	2B\	Sal-	2d\	Sal-	(4dd\	-a-
.	.	.	.	.	.	.	.	4cc\)	.
2G\	-va-	2G\	-va-	2d\	-va-	2g\	-va-	2b\	-tur
=33	=33	=33	=33	=33	=33	=33	=33	=33	=33
2E\	-to-	2E\	-to-	2c\	-to-	2g\	-to-	2ee\	ter-
2E\	-rem	2E\	-rem	2c\	-rem	2g\	-rem	4ee\	-ra
.	.	.	.	.	.	.	.	4ee\	et
=34	=34	=34	=34	=34	=34	=34	=34	=34	=34
4F\	ger-	4.F\	ger-	4.A/	ger-	4.f\	ger-	4.cc\	ger-
4F\	-mi-	.	.	.	.	.	.	.	.
.	.	8F\	-mi-	8A/	-mi-	8f\	-mi-	8cc\	-mi-
2A\	-net	2A\	-net	2c\	-net	2e\	-net	2cc\	-net,
*custos:F	*	*	*	*	*	*	*	*	*
!LO:LB:g=original	!	!	!	!	!	!	!	!	!
=35	=35	=35	=35	=35	=35	=35	=35	=35	=35
2F\	Sal-	2F\	Sal-	2c\	Sal-	2f\	Sal-	2a\	sal-
2F\	-va-	2F\	-va-	2c\	-va-	2f\	-va-	2a\	-va-
=36-	=36	=36	=36	=36	=36	=36	=36	=36	=36
1D	-to-	1D	-to-	(2c\	-to-	1f	to-	1dd	-to-
.	.	.	.	2B\)	.	.	.	.	.
=37	=37	=37	=37	=37	=37	=37	=37	=37	=37
2C,</	-rem	2C/	-rem	2c,<\	-rem	2e\	-rem	2g/	-rem
4E\	Sal-	4E\	Sal-	4c\	Sal-	4g\	Sal-	4g/	sal-
4E\	-va-	4E\	-va-	4c\	-va-	4g\	-va-	4g/	-va-
!	!	!	!	!	!	!	!	!LO:LB:g=original	!
=38	=38	=38	=38	=38	=38	=38	=38	=38	=38
2F\	-to-	2F\	-to-	[<1c	-to-	2f\	-to-	(2a\	-to-
2A\	.	2A\	.	.	.	2e\	.	2cc\)	.
=39-	=39	=39	=39	=39	=39	=39	=39	=39	=39
2F\	.	2F\	.	2c\]	.	1f	.	2a,<\	-rem
2D/	.	2D/	.	2d\	.	.	.	4a\	Sal-
.	.	.	.	.	.	.	.	4a\	-va-
!	!	!	!	!LO:LB:g=original	!	!	!	!	!
=40	=40	=40	=40	=40	=40	=40	=40	=40	=40
1E	.	1E	.	1B	.	1e	.	(2a\	-to-
.	.	.	.	.	.	.	.	2g#X/)	.
=41	=41	=41	=41	=41	=41	=41	=41	=41	=41
2AA/	-rem	2AA/	-rem	2c#X,<\	-rem,	2e,<\	-rem	2a\	-rem
!	!	!	!	!LO:TX:t=P:problem:- above	!	!LO:TX:a:t=ſ.	!	!	!
2r	.	2r	.	2c-\	et	2e\	et	2r	.
=42	=42	=42	=42	=42	=42	=42	=42	=42	=42
2r	.	2r	.	2.d\	ger-	2.f\	ger-	2r	.
2F\	et	2F\	et	.	.	.	.	2a\	et
!	!	!	!	!LO:TX:t=P:problem:n above	!	!	!	!	!
.	.	.	.	4cn\	-mi-	4e\	-mi-	.	.
!	!	!LO:LB:g=original	!	!	!	!LO:LB:g=original	!	!	!
=43	=43	=43	=43	=43	=43	=43	=43	=43	=43
2.G\	ger-	2.G\	ger-	1B	-net	1d	-net	2.b\	ger-
4F\	-mi-	4F\	-mi-	.	.	.	.	4a\	-mi-
=44-	=44	=44	=44	=44	=44	=44	=44	=44	=44
1E	-net	1E	-net	(2c\	Sal-	2e\	Sal-	1g	-net
.	.	.	.	4B\	.	2e\	-va-	.	.
.	.	.	.	4c\)	.	.	.	.	.
=45	=45	=45	=45	=45	=45	=45	=45	=45	=45
2F\	Sal-	2F\	Sal-	1A	-va-	2e\	-to-	2a\	Sal-
2F\	-va-	2F\	-va-	.	.	2d\	.	2a\	-va-
=46-	=46	=46	=46	=46	=46	=46	=46	=46	=46
1E	-to-	1E	-to-	1B	-to-	1e	.	1g#X	-to-
=47	=47	=47	=47	=47	=47	=47	=47	=47	=47
2AA,</	-rem	2AA,</	-rem	2c,<\	-rem	2e,<\	-rem	2a,<\	-rem
2AA/	et	2AA/	et	2c\	et	2e\	et	2a\	et
=48	=48	=48	=48	=48	=48	=48	=48	=48	=48
4.E\	ger-	4.E\	ger-	4.B\	ger-	4.e\	ger-	4.g/	ger-
8E\	-mi-	8E\	-mi-	8B\	-mi-	8e\	-mi-	8g/	-mi-
2BB/	-net	2BB/	-net	2G/	-net	2d\	-net	2b\	-net
=49	=49	=49	=49	=49	=49	=49	=49	=49	=49
*	*ij	*	*	*	*	*	*	*	*
2.D/	ger-	2.D/	ger-	2.G/	ger-	2.d\	ger-	2.a\	ger-
4D/	-mi-	4D/	-mi-	4F#X/	-mi-	4d\	-mi-	4a\	-mi-
=50-	=50	=50	=50	=50	=50	=50	=50	=50	=50
2GG,</	-net	2GG/	-net	2G/	-net	2d\	-net	2b,<\	-net
*	*Xij	*	*	*	*	*	*	*	*
4G\	Sal-	4G\	Sal-	4G/	Sal-	4d\	Sal-	4b\	Sal-
4G\	-va-	4G\	-va-	4G/	-va-	4d\	-va-	4b\	-va-
=51	=51	=51	=51	=51	=51	=51	=51	=51	=51
2A\	-to-	2A\	-to-	(2E/	-to-	2c/	-to-	2a\	-to-
2E\	.	2E\	.	2G/)	.	2e\	.	([<2cc\	.
*custos:G	*	*	*	*	*	*	*	*	*
!LO:LB:g=original	!	!	!	!	!	!	!	!LO:LB:g=original	!
=52	=52	=52	=52	=52	=52	=52	=52	=52	=52
!	!	!	!	!	!	!	!	!LO:TX:t=P:problem=brak zakończenia łuku	!
2G\	.	2G\	.	1G	.	1d	.	2cc\]	.
!	!	!	!	!	!	!	!	!LO:TX:t=P:problem=brak zakończenia łuku	!
2GG/	.	2GG/	.	.	.	.	.	2b\)	.
=53-	=53	=53	=53	=53	=53	=53	=53	=53	=53
!LO:N:vis=0C;	!	!	!	!	!	!	!	!	!
1C;	-rem	1C;	-rem	1G;	-rem.	1e;	-rem	1cc;<	-rem
=54||	=54||	=54||	=54||	=54||	=54||	=54||	=54||	=54||	=54||
!	!	!	!	!	!	!	!	!LO:TX:a:t=4.	!
2C/	Be-	2C/	Be-	2E/	Be-	1r	.	00r	.
4C/	-ne-	4C/	-ne-	4E/	-ne-	.	.	.	.
4D/	-di-	4D/	-di-	4Fn/	-di-	.	.	.	.
=55	=55	=55	=55	=55	=55	=55	=55	=55	=55
4E\	-xiſ-	4E\	-xis-	4G/	-xiſ-	2r	.	.	.
4E\	-ti	4E\	-ti	4G/	-ti	.	.	.	.
1F\	Do-	[<2F\	Do-	[2A/	Do-	2c/	Be-	.	.
!	!	!LO:LB:g=original	!	!LO:LB:g=original	!	!	!	!	!
=56	=56	=56	=56	=56	=56	=56	=56	=56	=56
.	.	2F\]	.	2A/]	.	4c/	-ne-	.	.
.	.	.	.	.	.	4d/	-di-	.	.
2E\	.	2E\	.	[2c\	.	4e\	-xiſ-	.	.
.	.	.	.	.	.	4e\	-ti	.	.
=57	=57	=57	=57	=57	=57	=57	=57	=57	=57
2.D/	.	2.D/	.	2c\]	.	2.f\	Do-	.	.
.	.	.	.	4.B\	.	.	.	.	.
4D/	-mi-	4D/	-mi-	.	.	4f\	-mi-	.	.
.	.	.	.	8B\	mi-	.	.	.	.
=58	=58	=58	=58	=58	=58	=58	=58	=58	=58
2C/	-ne	2C/	-ne	2c,<\	-ne	2e\	-ne	2g/	Be-
[2E/	ter-	[2E\	ter-	2B\	ter-	[<2e\	ter-	4g/	-ne-
.	.	.	.	.	.	.	.	4a\	-di-
!	!	!	!	!	!	!LO:LB:g=original	!	!	!
=59	=59	=59	=59	=59	=59	=59	=59	=59	=59
!LO:N:xstem	!	!LO:N:xstem	!	!	!	!	!	!	!
4E/]	.	4E\]	.	2G/	.	2e\]	.	4b\	-xis-
4D/	.	4D/	.	.	.	.	.	4b\	-ti
2C/	-ram	2C/	-ram	2A/	.	2e\	-ram	[<2cc\	Do-
=60	=60	=60	=60	=60	=60	=60	=60	=60	=60
!	!	!	!	!	!	!LO:TX:t=P:problem:brak kreski taktowej	!	!LO:N:xstem	!
0D	tu-	0D	tu-	2F#X/	-ram	0d	Tu-	4cc\]	.
.	.	.	.	.	.	.	.	4cc\	-mi-
.	.	.	.	[2G/	tu-	.	.	2b\	-ne
=61-	=61	=61-	=61	=61	=61	=61-	=61	=61	=61
.	.	.	.	2G/]	.	.	.	4a\	ter-
.	.	.	.	.	.	.	.	4a\	-ram
.	.	.	.	2F#X/	.	.	.	2a\	tu-
=62-	=62	=62	=62	=62	=62	=62	=62	=62	=62
2GG/	-am	2GG/	-am	2G,</	-am	2B/	-am	2g/	-am
2r	.	2r	.	[<2d\	ter-	2r	.	2r	.
=63	=63	=63	=63	=63	=63	=63	=63	=63	=63
1G	ter-	1G	ter-	2d\]	.	2r	.	1b	ter-
.	.	.	.	2B\	-ram	[<2g\	ter-	.	.
=64-	=64	=64	=64	=64	=64	=64	=64	=64	=64
2E\	-ram	2E\	-ram	2.e\	ter-	2g\]	.	2g/	-ram
[<2A\	ter-	[<2A\	ter-	.	.	2e\	-ram	[<2cc\	ter-
.	.	.	.	4d\	.	.	.	.	.
=65	=65	=65	=65	=65	=65	=65	=65	=65	=65
!LO:N:xstem	!	!LO:N:xstem	!	!	!	!	!	!LO:N:xstem	!
4A\]	.	4A\]	.	2c\	.	(2.a\	ter-	4cc\]	.
4G\	.	4G\	.	.	.	.	.	4b\	.
4F\	.	4F\	.	2c\	-ram	.	.	[2a\	.
4E\	.	4E\	.	.	.	4g\)	.	.	.
=66	=66	=66	=66	=66	=66	=66	=66	=66	=66
2D\	.	2D/	.	2d\	ter-	2f\	.	2a\]	.
2D\	-ram	2D/	-ram	2d\	-ram	2f\	-ram	2a,\	-ram
=67	=67	=67	=67	=67	=67	=67	=67	=67	=67
1E	tu-	1E	tu-	1B	Tu-	1e	Tu-	(2a\	tu-
.	.	.	.	.	.	.	.	2g#X/)	.
!	!	!	!	!	!	!	!	!LO:LB:g=original	!
=68	=68	=68	=68	=68	=68	=68	=68	=68	=68
1AA,	-am	1AA	-am	1c#X	-am.	1e,<	-am	1a	-am.
*custos:F	*	*	*	*	*	*	*	*	*
!LO:LB:g=original	!	!	!	!	!	!	!	!	!
=69	=69	=69	=69	=69	=69	=69	=69	=69	=69
2F\	a-	2F\	a-	2cn\	a-	2fn\	a-	2a\	a-
2E\	-ver-	2E\	-ver-	2c\	-ver-	2g\	-ver-	2cc\	-ver-
=70	=70	=70	=70	=70	=70	=70	=70	=70	=70
2F\	-tiſ-	2F\	-tis-	2c\	-tis-	2f\	-tis-	2a\	-tis-
2FF/	-ti	2FF/	-ti	2c\	-ti	2f\	-ti	2a\	-ti
!	!	!LO:PB:g=original	!	!LO:PB:g=original	!	!	!	!	!
=71	=71	=71	=71	=71	=71	=71	=71	=71	=71
2AA/	cap-	2AA/	cap-	2c\	cap-	2f\	cap-	2a\	cap-
4C/	-ti-	4C/	-ti-	4c\	-ti-	4e\	-ti-	4g/	-ti-
4C/	-vi-	4C/	-vi-	4c\	-vi-	4e\	-vi-	4g/	-vi-
=72-	=72	=72	=72	=72	=72	=72	=72	=72	=72
2GG/	-ta-	2GG/	-ta-	2B\	-ta-	2d\	-ta-	2g/	-ta-
2GG,</	-tem	2GG/	-tem	2B\	-tem	2d\	-tem	2g/	-tem
=73	=73	=73	=73	=73	=73	=73	=73	=73	=73
*	*ij	*	*	*	*ij	*	*	*	*
2G\	cap-	2G\	cap-	2B\	cap-	2d\	cap-	2g/	cap-
4G\	-ti-	4G\	-ti-	4d\	-ti-	4g\	-ti-	4b\	-ti-
4G\	-vi-	4G\	-vi-	4d\	-vi-	4g\	-vi-	4b\	-vi-
=74	=74	=74	=74	=74	=74	=74	=74	=74	=74
2A\	-ta-	2A\	-ta-	2c\	-ta-	2e\	-ta-	2a\	-ta-
2A,<\	-tem	2A\	-tem	2c\	-tem	2e\	-tem	2a\	-tem
*	*Xij	*	*	*	*Xij	*custos:e	*	*	*
!	!	!	!	!	!	!LO:PB:g=original	!	!	!
=75	=75	=75	=75	=75	=75	=75	=75	=75	=75
(2B\	Ja-	(2B\	Ja-	1B	Ja-	(2e\	Ja-	1f#X	Ja-
2BB/)	.	2BB/)	.	.	.	2d#X\)	.	.	.
=76-	=76	=76	=76	=76	=76	=76	=76	=76	=76
1E	-cob.	1E	-cob.	1G#X	-cob	1e	-cob	1e	-cob
=77	=77	=77	=77	=77	=77	=77	=77	=77	=77
!	!	!	!	!	!	!	!	!LO:TX:a:t=1.	!
1r	.	1r	.	2c\	cap-	2e\	Cap-	1r	.
.	.	.	.	4Gn/	-ti-	4B/	-ti-	.	.
.	.	.	.	4G/	-vi-	4B/	-vi-	.	.
=78	=78	=78	=78	=78	=78	=78	=78	=78	=78
2A\	cap-	2A\	cap-	2c\	-ta-	2e\	-ta-	2cc\	cap-
4E\	-ti-	4E\	-ti-	(4B\	-tem	2e\	-tem	4g/	-ti-
4E\	-vi-	4E\	-vi-	4e\)	.	.	.	4g/	-vi-
=79	=79	=79	=79	=79	=79	=79	=79	=79	=79
2A\	-ta-	2A\	-ta-	2c\	cap-	2e\	cap-	(2cc\	-ta-
(4G\	.	(4G\	.	4d\	-ti-	4g\	-ti-	4b\	.
4A\)	.	4A\)	.	4c\	-vi-	4e\	-vi-	4cc\)	.
=80	=80	=80	=80	=80	=80	=80	=80	=80	=80
2F\	.	2F\	.	2c\	-ta-	2f\	-ta-	2a\	.
2E\	-tem	2E\	-tem	2c\	-tem	2g\	-tem	2cc\	-tem
*	*	*	*	*	*	*	*	*custos:dd	*
!	!	!	!	!	!	!	!	!LO:PB:g=original	!
=81	=81	=81	=81	=81	=81	=81	=81	=81	=81
!	!	!	!	!LO:TX:t=P:problem:n above	!	!	!	!	!
2D/	Ja-	2D/	Ja-	2Fn/	Ja-	2f\	Ja-	4dd\	Ja-
.	.	.	.	.	.	.	.	4a\	.
2C/	.	2C/	.	2G/	.	2e\	.	[<2cc\	.
=82	=82	=82	=82	=82	=82	=82	=82	=82	=82
2G\	.	(2G\	.	1G	.	1d	.	2cc\]	.
2GG/	.	2GG/)	.	.	.	.	.	2b\	.
=83-	=83	=83	=83	=83	=83	=83	=83	=83	=83
!LO:N:vis=0C;	!	!	!	!	!	!	!	!	!
1C;	-cob.	1C	-cob.	1G;	-cob.	1e;	-cob.	1cc	-cob
!LO:LB:g=original	!	!LO:LB:g=original	!	!LO:LB:g=original	!	!LO:LB:g=original	!	!	!
=84||	=84||	=84||	=84||	=84||	=84||	=84||	=84||	=84||	=84||
*M3/2	*	*M3/4	*	*M3/4	*	*M3/4	*	*M3/4	*
!LO:TX:t=P:problem:Metrum zmienione na 3/2 wartości x2	!	!	!	!	!	!	!	!	!
4.c\	Glo-	4.c\	Glo-	4.e\	Glo-	4.g\	Glo-	4.cc\	Glo-
8c\	-ri-	8c\	-ri-	8e\	-ri-	8g\	-ri-	8cc\	-ri-
4B\	-a	4B\	-a	4d\	-a	4g\	-a	4dd\	-a
=85	=85	=85	=85	=85	=85	=85	=85	=85	=85
4c\	Pa-	4c\	Pa-	4e\	Pa-	4g\	Pa-	4cc\	Pa-
4B\	-tri	4B\	-tri	4d\	-tri	4g\	-tri	4dd\	-tri
4c\	et	4c\	et	4c\	et	4g\	et	4ee\	et
=86	=86	=86	=86	=86	=86	=86	=86	=86	=86
4.G\	Fi-	4.G\	Fi-	4.d\	Fi-	4.g\	Fi-	4.b\	Fi-
8G\	-li-	8G\	-li-	8d\	-li-	8g\	-li-	8b\	-li-
4G\	-o	4G\	-o	4d\	-o	4g\	-o	4b\	-o
=87	=87	=87	=87	=87	=87	=87	=87	=87	=87
4r	.	4r	.	4r	.	4r	.	4r	.
4G\	et	4G\	et	4d\	et	4g\	et	4b\	et
4G\	Spi-	4G\	Spi-	4d\	Spi-	4g\	Spi-	4b\	Spi-
=88	=88	=88	=88	=88	=88	=88	=88	=88	=88
4.A\	-ri-	4.A\	-ri-	4.c\	-ri-	4.e\	-ri-	4.a\	-ri-
8A\	-tu-	8A\	-tu-	8c\	-tu-	8e\	-tu-	8a\	-tu-
4A\	-i	4A\	-i	4c\	-i	4e\	-i	4a\	-i
=89	=89	=89	=89	=89	=89	=89	=89	=89	=89
4E\	San-	4E\	San-	4B\	San-	(2e\	San-	4g#X/	San-
2F\	.	2F\	.	2A/	.	.	.	2a\	-cto
.	.	.	.	.	.	4d\)	.	.	.
!	!	!	!	!	!	!	!	!LO:LB:g=original	!
=90	=90	=90	=90	=90	=90	=90	=90	=90	=90
2E\	.	2E\	-cto	2B,<\	-cto	2e,<\	-cto	2g#X/	glo-
4C#X/	-cto	4C#X/	glo-	[4A/	glo-	4e\	glo-	4a\	.
=91	=91	=91	=91	=91	=91	=91	=91	=91	=91
4D/	Glo-	4D/	.	4A/]	.	2d\	.	4f#X/	.
4.BB/	.	4.BB/	.	4.B\	.	.	.	4.g#X/	.
.	.	.	.	.	.	4d\	-ri-	.	.
8BB/	ri-	8BB/	ri-	8B\	-ri-	.	.	8g#/	-ri-
=92	=92	=92	=92	=92	=92	=92	=92	=92	=92
2.AA/	-a.	2.AA/	-a.	2.c#X\	-a	2.e\	-a	2.a\	-a
=93	=93	=93	=93	=93	=93	=93	=93	=93	=93
8D/	Si-	8D\	Si-	8d\	Si-	8f#X\	Si-	8a\	Si-
8D/	-cut	8D\	-cut	8d\	-cut	8f#\	-cut	8a\	-cut
!	!	!	!	!	!	!LO:LB:g=original	!	!	!
=-	=-	=-	=-	=-	=-	=-	=-	=-	=-
8D/	e-	8D\	e-	8d\	e-	8f#X\	e-	8a\	e-
8D/	-rat	8D\	-rat	8d\	-rat	8f#\	-rat	8a\	-rat
8D/	in	8D\	in	8d\	in	8f#\	in	8a\	in
8D/	p(rin-	8D\	prin-	8d\	prin-	8f#\	prin-	8a\	prin-
!	!	!LO:LB:g=original	!	!LO:LB:g=original	!	!	!	!	!
=94	=94	=94	=94	=94	=94	=94	=94	=94	=94
4.G\	-ci)-	4.G\	-ci-	4.d\	-ci-	4.g\	-ci-	4.b\	-ci-
8G\	-pi-	8G\	-pi-	8d\	-pi-	8g\	-pi-	8b\	-pi-
4G\	-o	4G\	-o	4d\	-o	4g\	-o	4b\	-o
!LO:LB:g=original	!	!	!	!	!	!	!	!	!
=95	=95	=95	=95	=95	=95	=95	=95	=95	=95
4F#X\	et	4F#X\	et	4d\	et	4d\	et	4a\	et
4F#\	nunc	4F#\	nunc	4d\	nunc	4d\	nunc	4a\	nunc
4A\	et	4A\	et	(8d\L	et	4e\	et	4a\	et
.	.	.	.	8c#X\J)	.	.	.	.	.
=96	=96	=96	=96	=96	=96	=96	=96	=96	=96
4D/	sem-	4D/	sem-	4d\	sem-	4f#X\	sem-	4a\	sem-
4D/	-p(er)	4D/	-per	4d\	-per	4f#\	-per	4a\	-per
8D/	et	8D/	et	8A\	et	8d\	et	8f#X/	et
8D/	in	8D/	in	8A\	in	8d\	in	8f#/	in
=97	=97	=97	=97	=97	=97	=97	=97	=97	=97
4.BB/	sae-	4.BB/	sae-	4.B\	sae-	4.d#X\	sae-	4.f#X/	sae-
8BB/	-cu-	8BB/	-cu-	8B\	-cu-	8d#\	-cu-	8f#/	-cu-
4BB/	-la	4BB/	-la	4B\	-la	4d#\	-la	4f#/	-la
!	!	!	!	!	!	!	!	!LO:LB:g=original	!
=98	=98	=98	=98	=98	=98	=98	=98	=98	=98
4.E\	sae-	4.E\	sae-	4.B\	sae-	4.e\	sae-	4.g/	sae-
8E\	-cu-	8E\	-cu-	8B\	-cu-	8e\	-cu-	8g/	-cu-
4G\	-lo-	4G\	-lo-	4B\	-lo-	4dn\	-lo-	4g/	-lo-
=99	=99	=99	=99	=99	=99	=99	=99	=99	=99
4BB,</	-rum	4BB/	-rum	4G/	-rum	4d\	-rum	4g/	-rum
2D/	a-	2D/	a-	2A/	a-	2d\	a-	4g/	a-
.	.	.	.	.	.	.	.	4f#X/	.
=100	=100	=100	=100	=100	=100	=100	=100	=100	=100
2GG/	-men	2GG/	-men	4B,<\	-men	2d\	-men	4g/	-men
!	!	!	!	!LO:TX:a:t=ſ.	!	!	!	!	!
.	.	.	.	4G/	a-	.	.	4b\	a-
4r	.	4r	.	4B\	-men	4r	.	4dd\	-men
!	!	!	!	!	!	!LO:LB:g=original	!	!	!
=101	=101	=101	=101	=101	=101	=101	=101	=101	=101
4r	.	4r	.	2c\	a-	4r	.	2ee\	a-
4C/	a-	4C/	a-	.	.	4e\	a-	.	.
4E\	-men	4E\	-men	4c\	-men	4g\	-men	4ee\	-men
=102	=102	=102	=102	=102	=102	=102	=102	=102	=102
*	*ij	*	*	*	*ij	*	*	*	*
2F\	a-	2F\	a-	2A/	a-	2a\	a-	[<2.cc\	a-
4F\	-men	4F\	-men	4F/	-men	4a\	-men	.	.
*	*Xij	*	*	*	*Xij	*	*	*	*
=103	=103	=103	=103	=103	=103	=103	=103	=103	=103
2E\	a-	2E\	a-	4.c\	a-	2g\	a-	2cc\]	.
.	.	.	.	8B\L	.	.	.	.	.
[<4F\	.	[4F\	.	8A\	.	[<4a\	.	4cc\	-men
.	.	.	.	8B\J	.	.	.	.	.
!	!	!	!	!LO:LB:g=original	!	!	!	!	!
=104	=104	=104	=104	=104	=104	=104	=104	=104	=104
4F\]	.	4F\]	.	8c\L	.	4a\]	.	2cc\	a-
.	.	.	.	8A\J	.	.	.	.	.
2D/	.	2D/	.	2d\	.	2f\	.	.	.
.	.	.	.	.	.	.	.	4b\	.
!	!	!LO:LB:g=original	!	!	!	!	!	!	!
=105	=105	=105	=105	=105	=105	=105	=105	=105	=105
4C,</	-men	4C/	-men	4G,</	-men	4e,<\	-men	4cc\	-men
4c\	a-	4c\	a-	4G/	a-	[2e\	a-	4ee\	a-
4A\	.	4A\	.	4A/	.	.	.	4cc\	.
*custos:G#	*	*	*	*	*	*	*	*	*
!LO:LB:g=original	!	!	!	!	!	!	!	!	!
=106	=106	=106	=106	=106	=106	=106	=106	=106	=106
2G#X\	.	2G#X\	.	2B\	.	2e\]	.	2b\	.
4G#\	-men	4G#\	-men	4B\	-men	4e\	-men	4b\	-men
=107	=107	=107	=107	=107	=107	=107	=107	=107	=107
2A\	a-	2A\	a-	2A/	a-	2e\	a-	2cc\	a-
4B\	.	4B\	.	[4G/	.	4g\	.	4dd\	.
!	!	!	!	!	!	!	!	!LO:LB:g=original	!
=108	=108	=108	=108	=108	=108	=108	=108	=108	=108
4c\	.	4c\	.	4G/]	.	2e\	.	4ee\	.
2F\	.	2F\	.	2A/	.	.	.	2a\	.
.	.	.	.	.	.	4d\	.	.	.
=109	=109	=109	=109	=109	=109	=109	=109	=109	=109
4E,<\	-men	4E\	-men	4B,<\	-men	4e,<\	-men	4g#X,</	-men
*	*ij	*	*	*	*	*	*	*	*
4A\	a-	4A\	a-	2c\	a-	2e\	a-	4a\	a-
4c\	.	4c\	.	.	.	.	.	4gn/	.
=110	=110	=110	=110	=110	=110	=110	=110	=110	=110
2G\	-men	2G\	-men	2B\	-men	2d,<\	-men	2g,</	-men
*	*Xij	*	*	*	*	*	*	*	*
[<4E\	a-	[<4E\	a-	[<4c\	a-	[<4e\	a-	[4g/	a-
=111	=111	=111	=111	=111	=111	=111	=111	=111	=111
4E\]	.	4E\]	.	4c\]	.	4e\]	.	4g/]	.
4G\	.	4G\	.	4c\	.	2d\	.	2g/	.
4GG/	.	4GG/	.	4B\	.	.	.	.	.
=112	=112	=112	=112	=112	=112	=112	=112	=112	=112
!	!	!LO:TX:b:i:t=O. ad M. D. G.	!	!	!	!	!	!	!
2.C/	-men.	2.C/	-men	2.c\	-men.	2.e;\	-men	2.g/	-men.
==	==	==	==	==	==	==	==	==	==
*-	*-	*-	*-	*-	*-	*-	*-	*-	*-
!!!system-decoration: [(s1,s2,s3,s4,s5)]
!!!RDF**kern: < = below
!!!ENC: Filip Voros
!!!END: 2024-04-17
!!!EED: Marta Chmielewska
!!!EEV: 2024-05-31
